src/assets/images/podlogo.svg

<svg fill="none" height="138" viewBox="0 0 137 138" width="137" xmlns="http://www.w3.org/2000/svg" xmlns:xlink="http://www.w3.org/1999/xlink"><linearGradient id="a" gradientUnits="userSpaceOnUse" x1="19.449" x2="106.356" y1="-8.94688" y2="121.414"><stop offset="0" stop-color="#fff"/><stop offset="1" stop-color="#fff" stop-opacity="0"/></linearGradient><rect fill="#fff" height="135.435" rx="67.7175" stroke="url(#a)" width="135.435" x=".791992" y="1.36523"/><g fill="#000"><path d="m68.9785 12.9442c-15.1155 0-29.3397 5.8968-40.0255 16.5826-10.6858 10.6875-16.5826 24.9117-16.5826 40.0254s5.8968 29.3397 16.5826 40.0258c10.6858 10.685 24.9118 16.582 40.0255 16.582s29.3397-5.897 40.0255-16.582c10.686-10.6861 16.583-24.9121 16.583-40.0258s-5.897-29.3397-16.583-40.0254c-10.6858-10.6858-24.9101-16.5826-40.0255-16.5826zm0 116.8288c-16.0771 0-31.2172-6.258-42.5776-17.643-11.3832-11.361-17.64113-26.4989-17.64113-42.5778s6.25793-31.2172 17.64293-42.5776c11.3603-11.3832 26.4987-17.6411 42.5758-17.6411s31.2175 6.2579 42.5775 17.6429c11.385 11.385 17.643 26.4987 17.643 42.5776s-6.258 31.217-17.643 42.578c-11.36 11.383-26.4986 17.641-42.5775 17.641z"/><path d="m40.3023 59.2695c2.1101 0 4.0017.4668 5.6732 1.3985 1.6714.9317 2.9801 2.2333 3.9259 3.9048s1.4178 3.6036 1.4178 5.7964-.472 4.132-1.4178 5.8176c-.9458 1.6855-2.2545 2.9942-3.9259 3.9259-1.6715.9317-3.5631 1.3985-5.6732 1.3985-1.5622 0-2.9942-.3012-4.2958-.9053-1.3016-.6024-2.4041-1.4795-3.3094-2.6314v11.2635h-3.9471v-29.7624h3.7815v3.4539c.8771-1.2065 1.9867-2.1171 3.3306-2.7335 1.3421-.6182 2.8216-.9265 4.4402-.9265zm-.3293 18.7878c1.3984 0 2.6507-.3223 3.7621-.967 1.1096-.6428 1.9868-1.5482 2.6314-2.7141.6429-1.1642.9669-2.5011.9669-4.0087 0-1.5077-.3223-2.8428-.9669-4.0088-.6446-1.1642-1.5218-2.0624-2.6314-2.693-1.1096-.6305-2.3637-.9458-3.7621-.9458-1.3703 0-2.6103.3223-3.7199.967-1.1096.6446-1.9867 1.5411-2.6314 2.693-.6446 1.1519-.9669 2.4799-.9669 3.9876 0 1.5076.3153 2.8445.9458 4.0087.6306 1.1659 1.5077 2.0695 2.6314 2.7141 1.1237.6447 2.3707.967 3.741.967z"/><path d="m68.9937 81.5094c-2.1646 0-4.1108-.4791-5.8369-1.439s-3.077-2.2808-4.0492-3.9664c-.974-1.6856-1.4601-3.5966-1.4601-5.7348s.4861-4.0492 1.4601-5.7348c.9722-1.6855 2.3231-3.0012 4.0492-3.947s3.6723-1.4179 5.8369-1.4179c2.1647 0 4.1038.4721 5.8176 1.4179 1.712.9458 3.0558 2.2615 4.0281 3.947.9722 1.6856 1.4601 3.5966 1.4601 5.7348s-.4861 4.0492-1.4601 5.7348-2.3161 3.0083-4.0281 3.9664c-1.712.9599-3.6512 1.439-5.8176 1.439zm0-3.4521c1.3985 0 2.6508-.3223 3.7622-.967 1.1096-.6428 1.9797-1.5482 2.6102-2.7141.6305-1.1642.9458-2.5011.9458-4.0087 0-1.5077-.3153-2.8428-.9458-4.0088-.6305-1.1642-1.5006-2.0624-2.6102-2.693-1.1097-.6305-2.3637-.9458-3.7622-.9458-1.3984 0-2.6507.3153-3.7621.9458-1.1096.6306-1.9867 1.5288-2.6314 2.693-.6446 1.166-.9669 2.5011-.9669 4.0088 0 1.5076.3223 2.8445.9669 4.0087.6429 1.1659 1.5218 2.0695 2.6314 2.7141 1.1114.6447 2.3654.967 3.7621.967z"/><path d="m109.199 50.7593v30.5039h-3.781v-3.4539c-.878 1.2065-1.987 2.1241-3.331 2.7546-1.344.6306-2.8233.9459-4.4402.9459-2.11 0-4.0017-.465-5.6731-1.3985-1.6715-.9317-2.9802-2.2404-3.926-3.9259-.9458-1.6856-1.4178-3.6248-1.4178-5.8176s.472-4.125 1.4178-5.7964c.9458-1.6715 2.2545-2.9731 3.926-3.9048 1.6714-.9318 3.5631-1.3985 5.6731-1.3985 1.5623 0 3.0012.2941 4.3172.8842 1.315.59 2.411 1.4601 3.288 2.6102v-12.0032zm-11.2228 27.2983c1.3702 0 2.6168-.3223 3.7408-.9669 1.124-.6429 2.001-1.5482 2.632-2.7142.63-1.1642.945-2.501.945-4.0087s-.315-2.8427-.945-4.0087c-.631-1.1642-1.508-2.0625-2.632-2.693-1.124-.6306-2.3706-.9459-3.7408-.9459-1.3985 0-2.6526.3153-3.7622.9459-1.1096.6305-1.9867 1.5288-2.6314 2.693-.6446 1.166-.9669 2.501-.9669 4.0087s.3223 2.8445.9669 4.0087c.6429 1.166 1.5218 2.0695 2.6314 2.7142 1.1096.6446 2.3637.9669 3.7622.9669z"/></g></svg>

<svg width="137" height="138" viewBox="0 0 137 138" fill="none" xmlns="http://www.w3.org/2000/svg">
    <rect x="0.791992" y="1.36523" width="135.435" height="135.435" rx="67.7175" fill="white"
        stroke="url(#paint0_linear)" />
    <path
        d="M68.9785 12.9442C53.863 12.9442 39.6388 18.841 28.953 29.5268C18.2672 40.2143 12.3704 54.4385 12.3704 69.5522C12.3704 84.6659 18.2672 98.8919 28.953 109.578C39.6388 120.263 53.8648 126.16 68.9785 126.16C84.0922 126.16 98.3182 120.263 109.004 109.578C119.69 98.8919 125.587 84.6659 125.587 69.5522C125.587 54.4385 119.69 40.2125 109.004 29.5268C98.3182 18.841 84.0939 12.9442 68.9785 12.9442ZM68.9785 129.773C52.9014 129.773 37.7613 123.515 26.4009 112.13C15.0177 100.769 8.75977 85.6311 8.75977 69.5522C8.75977 53.4733 15.0177 38.335 26.4027 26.9746C37.763 15.5914 52.9014 9.3335 68.9785 9.3335C85.0556 9.3335 100.196 15.5914 111.556 26.9764C122.941 38.3614 129.199 53.4751 129.199 69.554C129.199 85.6329 122.941 100.771 111.556 112.132C100.196 123.515 85.0574 129.773 68.9785 129.773Z"
        fill="black" />
    <path
        d="M40.3023 59.2695C42.4124 59.2695 44.304 59.7363 45.9755 60.668C47.6469 61.5997 48.9556 62.9013 49.9014 64.5728C50.8472 66.2443 51.3192 68.1764 51.3192 70.3692C51.3192 72.562 50.8472 74.5012 49.9014 76.1868C48.9556 77.8723 47.6469 79.181 45.9755 80.1127C44.304 81.0444 42.4124 81.5112 40.3023 81.5112C38.7401 81.5112 37.3081 81.21 36.0065 80.6059C34.7049 80.0035 33.6024 79.1264 32.6971 77.9745V89.238H28.75V59.4756H32.5315V62.9295C33.4086 61.723 34.5182 60.8124 35.8621 60.196C37.2042 59.5778 38.6837 59.2695 40.3023 59.2695ZM39.973 78.0573C41.3714 78.0573 42.6237 77.735 43.7351 77.0903C44.8447 76.4475 45.7219 75.5421 46.3665 74.3762C47.0094 73.212 47.3334 71.8751 47.3334 70.3675C47.3334 68.8598 47.0111 67.5247 46.3665 66.3587C45.7219 65.1945 44.8447 64.2963 43.7351 63.6657C42.6255 63.0352 41.3714 62.7199 39.973 62.7199C38.6027 62.7199 37.3627 63.0422 36.2531 63.6869C35.1435 64.3315 34.2664 65.228 33.6217 66.3799C32.9771 67.5318 32.6548 68.8598 32.6548 70.3675C32.6548 71.8751 32.9701 73.212 33.6006 74.3762C34.2312 75.5421 35.1083 76.4457 36.232 77.0903C37.3557 77.735 38.6027 78.0573 39.973 78.0573Z"
        fill="black" />
    <path
        d="M68.9937 81.5094C66.8291 81.5094 64.8829 81.0303 63.1568 80.0704C61.4307 79.1105 60.0798 77.7896 59.1076 76.104C58.1336 74.4184 57.6475 72.5074 57.6475 70.3692C57.6475 68.231 58.1336 66.32 59.1076 64.6344C60.0798 62.9489 61.4307 61.6332 63.1568 60.6874C64.8829 59.7416 66.8291 59.2695 68.9937 59.2695C71.1584 59.2695 73.0975 59.7416 74.8113 60.6874C76.5233 61.6332 77.8671 62.9489 78.8394 64.6344C79.8116 66.32 80.2995 68.231 80.2995 70.3692C80.2995 72.5074 79.8134 74.4184 78.8394 76.104C77.8654 77.7896 76.5233 79.1123 74.8113 80.0704C73.0993 81.0303 71.1601 81.5094 68.9937 81.5094ZM68.9937 78.0573C70.3922 78.0573 71.6445 77.735 72.7559 77.0903C73.8655 76.4475 74.7356 75.5421 75.3661 74.3762C75.9966 73.212 76.3119 71.8751 76.3119 70.3675C76.3119 68.8598 75.9966 67.5247 75.3661 66.3587C74.7356 65.1945 73.8655 64.2963 72.7559 63.6657C71.6462 63.0352 70.3922 62.7199 68.9937 62.7199C67.5953 62.7199 66.343 63.0352 65.2316 63.6657C64.122 64.2963 63.2449 65.1945 62.6002 66.3587C61.9556 67.5247 61.6333 68.8598 61.6333 70.3675C61.6333 71.8751 61.9556 73.212 62.6002 74.3762C63.2431 75.5421 64.122 76.4457 65.2316 77.0903C66.343 77.735 67.597 78.0573 68.9937 78.0573Z"
        fill="black" />
    <path
        d="M109.199 50.7593V81.2632H105.418V77.8093C104.54 79.0158 103.431 79.9334 102.087 80.5639C100.743 81.1945 99.2637 81.5098 97.6468 81.5098C95.5368 81.5098 93.6451 81.0448 91.9737 80.1113C90.3022 79.1796 88.9935 77.8709 88.0477 76.1854C87.1019 74.4998 86.6299 72.5606 86.6299 70.3678C86.6299 68.175 87.1019 66.2428 88.0477 64.5714C88.9935 62.8999 90.3022 61.5983 91.9737 60.6666C93.6451 59.7348 95.5368 59.2681 97.6468 59.2681C99.2091 59.2681 100.648 59.5622 101.964 60.1523C103.279 60.7423 104.375 61.6124 105.252 62.7625V50.7593H109.199ZM97.9762 78.0576C99.3464 78.0576 100.593 77.7353 101.717 77.0907C102.841 76.4478 103.718 75.5425 104.349 74.3765C104.979 73.2123 105.294 71.8755 105.294 70.3678C105.294 68.8601 104.979 67.5251 104.349 66.3591C103.718 65.1949 102.841 64.2966 101.717 63.6661C100.593 63.0355 99.3464 62.7202 97.9762 62.7202C96.5777 62.7202 95.3236 63.0355 94.214 63.6661C93.1044 64.2966 92.2273 65.1949 91.5826 66.3591C90.938 67.5251 90.6157 68.8601 90.6157 70.3678C90.6157 71.8755 90.938 73.2123 91.5826 74.3765C92.2255 75.5425 93.1044 76.446 94.214 77.0907C95.3236 77.7353 96.5777 78.0576 97.9762 78.0576Z"
        fill="black" />
    <defs>
        <linearGradient id="paint0_linear" x1="19.449" y1="-8.94688" x2="106.356" y2="121.414"
            gradientUnits="userSpaceOnUse">
            <stop stop-color="white" />
            <stop offset="1" stop-color="white" stop-opacity="0" />
        </linearGradient>
    </defs>
</svg>
